Faba/24x24/actions/call-start.svg

<?xml version="1.0" encoding="UTF-8" standalone="no"?>
<!-- Created with Inkscape (http://www.inkscape.org/) -->

<svg
   xmlns:dc="http://purl.org/dc/elements/1.1/"
   xmlns:cc="http://creativecommons.org/ns#"
   xmlns:rdf="http://www.w3.org/1999/02/22-rdf-syntax-ns#"
   xmlns:svg="http://www.w3.org/2000/svg"
   xmlns="http://www.w3.org/2000/svg"
   xmlns:sodipodi="http://sodipodi.sourceforge.net/DTD/sodipodi-0.dtd"
   xmlns:inkscape="http://www.inkscape.org/namespaces/inkscape"
   width="24"
   height="24"
   id="svg3495"
   version="1.1"
   inkscape:version="0.48.4 r9939"
   sodipodi:docname="archive-extract.svg">
  <defs
     id="defs3497" />
  <sodipodi:namedview
     id="base"
     pagecolor="#ffffff"
     bordercolor="#666666"
     borderopacity="1.0"
     inkscape:pageopacity="0.0"
     inkscape:pageshadow="2"
     inkscape:zoom="1"
     inkscape:cx="-152.74844"
     inkscape:cy="13.782275"
     inkscape:current-layer="layer1"
     showgrid="false"
     inkscape:grid-bbox="true"
     inkscape:document-units="px"
     inkscape:window-width="1364"
     inkscape:window-height="701"
     inkscape:window-x="0"
     inkscape:window-y="27"
     inkscape:window-maximized="1"
     inkscape:snap-bbox="true"
     inkscape:bbox-paths="true"
     inkscape:bbox-nodes="true"
     inkscape:snap-bbox-edge-midpoints="false">
    <inkscape:grid
       type="xygrid"
       id="grid3512"
       empspacing="4"
       visible="true"
       enabled="true"
       snapvisiblegridlinesonly="true"
       dotted="false" />
  </sodipodi:namedview>
  <metadata
     id="metadata3500">
    <rdf:RDF>
      <cc:Work
         rdf:about="">
        <dc:format>image/svg+xml</dc:format>
        <dc:type
           rdf:resource="http://purl.org/dc/dcmitype/StillImage" />
        <dc:title></dc:title>
      </cc:Work>
    </rdf:RDF>
  </metadata>
  <g
     id="layer1"
     inkscape:label="Layer 1"
     inkscape:groupmode="layer"
     transform="translate(1,-25)">
    <path
       id="path13"
       d="m 6.048019,28.022282 c 1.061591,-0.200533 1.757299,0.996506 2.286775,1.822385 0.515404,0.80213 1.149546,1.743226 0.893602,2.787228 -0.142484,0.585766 -0.67196,0.905035 -1.072145,1.25069 -0.39491,0.341257 -0.996507,0.654369 -1.142509,1.178569 -0.238352,0.850504 0.283208,1.743227 0.605996,2.251595 0.733527,1.148664 1.620092,2.18387 2.752047,3.108255 0.547945,0.44856 1.308739,1.04752 2.071291,0.893602 1.138989,-0.230437 1.439789,-1.635044 2.679924,-1.822384 1.18033,-0.178545 1.978942,0.677237 2.645625,1.25069 0.642056,0.554983 1.678141,1.265643 1.607779,2.216414 -0.04134,0.546188 -0.479343,0.884806 -0.8593,1.214629 -0.386113,0.33686 -0.724732,0.715058 -1.106447,0.963965 -0.924385,0.603357 -2.058099,0.898878 -3.359802,0.85842 C 12.774657,45.95677 11.757922,45.523153 10.835296,45.031497 9.031381,44.069292 7.605665,42.715697 6.262624,41.207303 4.941572,39.724417 3.721664,37.968877 3.047065,36.027757 2.205355,33.603774 2.650398,31.113827 4.012788,29.560579 4.243225,29.29672 4.60735,29.021428 4.940692,28.738218 5.273153,28.454131 5.580989,28.110235 6.048019,28.022282 z"
       clip-rule="evenodd"
       inkscape:connector-curvature="0"
       style="fill:#555555;fill-opacity:1;fill-rule:evenodd;stroke:none;display:inline;enable-background:new" />
    <path
       style="opacity:0.1;fill:#ffffff;fill-opacity:1;fill-rule:evenodd;stroke:none;display:inline;enable-background:new"
       inkscape:connector-curvature="0"
       clip-rule="evenodd"
       d="m 6.048019,27.022282 c 1.061591,-0.200533 1.757299,0.996506 2.286775,1.822385 0.515404,0.80213 1.149546,1.743226 0.893602,2.787228 -0.142484,0.585766 -0.67196,0.905035 -1.072145,1.25069 -0.39491,0.341257 -0.996507,0.654369 -1.142509,1.178569 -0.238352,0.850504 0.283208,1.743227 0.605996,2.251595 0.733527,1.148664 1.620092,2.18387 2.752047,3.108255 0.547945,0.44856 1.308739,1.04752 2.071291,0.893602 1.138989,-0.230437 1.439789,-1.635044 2.679924,-1.822384 1.18033,-0.178545 1.978942,0.677237 2.645625,1.25069 0.642056,0.554983 1.678141,1.265643 1.607779,2.216414 -0.04134,0.546188 -0.479343,0.884806 -0.8593,1.214629 -0.386113,0.33686 -0.724732,0.715058 -1.106447,0.963965 -0.924385,0.603357 -2.058099,0.898878 -3.359802,0.85842 C 12.774657,44.95677 11.757922,44.523153 10.835296,44.031497 9.031381,43.069292 7.605665,41.715697 6.262624,40.207303 4.941572,38.724417 3.721664,36.968877 3.047065,35.027757 2.205355,32.603774 2.650398,30.113827 4.012788,28.560579 4.243225,28.29672 4.60735,28.021428 4.940692,27.738218 5.273153,27.454131 5.580989,27.110235 6.048019,27.022282 z"
       id="path3806" />
  </g>
</svg>

<svg xmlns="http://www.w3.org/2000/svg" viewBox="0 0 24 24"><g transform="translate(1-25)" fill-rule="evenodd"><path d="m6.05 28.02c1.062-.201 1.757.997 2.287 1.822.515.802 1.15 1.743.894 2.787-.142.586-.672.905-1.072 1.251-.395.341-.997.654-1.143 1.179-.238.851.283 1.743.606 2.252.734 1.149 1.62 2.184 2.752 3.108.548.449 1.309 1.048 2.071.894 1.139-.23 1.44-1.635 2.68-1.822 1.18-.179 1.979.677 2.646 1.251.642.555 1.678 1.266 1.608 2.216-.041.546-.479.885-.859 1.215-.386.337-.725.715-1.106.964-.924.603-2.058.899-3.36.858-1.276-.04-2.293-.473-3.216-.965-1.804-.962-3.23-2.316-4.573-3.824-1.321-1.483-2.541-3.238-3.216-5.18-.842-2.424-.397-4.914.966-6.467.23-.264.595-.539.928-.822.332-.284.64-.628 1.107-.716" fill="#555"/><path d="m6.05 27.02c1.062-.201 1.757.997 2.287 1.822.515.802 1.15 1.743.894 2.787-.142.586-.672.905-1.072 1.251-.395.341-.997.654-1.143 1.179-.238.851.283 1.743.606 2.252.734 1.149 1.62 2.184 2.752 3.108.548.449 1.309 1.048 2.071.894 1.139-.23 1.44-1.635 2.68-1.822 1.18-.179 1.979.677 2.646 1.251.642.555 1.678 1.266 1.608 2.216-.041.546-.479.885-.859 1.215-.386.337-.725.715-1.106.964-.924.603-2.058.899-3.36.858-1.276-.04-2.293-.473-3.216-.965-1.804-.962-3.23-2.316-4.573-3.824-1.321-1.483-2.541-3.238-3.216-5.18-.842-2.424-.397-4.914.966-6.467.23-.264.595-.539.928-.822.332-.284.64-.628 1.107-.716" opacity=".1" fill="#fff"/></g></svg>
